packages/foundations/assets/icons/functional/images/devices/fax_machine_20.svg

<svg xmlns="http://www.w3.org/2000/svg" width="20" height="20" fill="none"><g clip-path="url(#a)"><path fill="#1A1C1F" fill-rule="evenodd" d="M13.093 2c.25 0 .5.156.625.25l2.031 2.062.073.099c.112.172.177.381.177.589v3h.407c1 0 1.594.875 1.594 1.844v5.344c0 .937-.625 1.812-1.594 1.812H7.22c-.55.609-1.337 1-2.22 1-1.654 0-3-1.346-3-3V9c0-1.654 1.346-3 3-3V3.781C5 2.75 5.812 2 6.812 2zM4.999 8a1 1 0 0 0-1 1v6a1 1 0 0 0 2 0V9a1 1 0 0 0-1-1m11 2h-8v5h8zm-2.5 1.5a1 1 0 1 1 0 2 1 1 0 0 1 0-2m-3 0a1 1 0 1 1 0 2 1 1 0 0 1 0-2m1.5-7.5h-5v2.78c.367.331.647.746.816 1.22h6.184V6h-1.031c-.531 0-.969-.5-.969-1z" clip-rule="evenodd"/></g><defs><clipPath id="a"><path fill="#fff" d="M0 0h20v20H0z"/></clipPath></defs></svg>

<svg width="20" height="20" viewBox="0 0 20 20" fill="none" xmlns="http://www.w3.org/2000/svg">
<g clip-path="url(#clip0_185_713)">
<path fill-rule="evenodd" clip-rule="evenodd" d="M13.093 2C13.343 2 13.593 2.156 13.718 2.25L15.749 4.312L15.822 4.411C15.934 4.583 15.999 4.792 15.999 5V8H16.406C17.406 8 18 8.875 18 9.844V15.188C18 16.125 17.375 17 16.406 17H7.22C6.67 17.609 5.883 18 5 18C3.346 18 2 16.654 2 15V9C2 7.346 3.346 6 5 6V3.781C5 2.75 5.812 2 6.812 2H13.093ZM4.999 8C4.447 8 3.999 8.448 3.999 9V15C3.999 15.552 4.447 16 4.999 16C5.551 16 5.999 15.552 5.999 15V9C5.999 8.448 5.551 8 4.999 8ZM15.999 10H7.999V15H15.999V10ZM13.499 11.5C14.0513 11.5 14.499 11.9477 14.499 12.5C14.499 13.0523 14.0513 13.5 13.499 13.5C12.9467 13.5 12.499 13.0523 12.499 12.5C12.499 11.9477 12.9467 11.5 13.499 11.5ZM10.499 11.5C11.0513 11.5 11.499 11.9477 11.499 12.5C11.499 13.0523 11.0513 13.5 10.499 13.5C9.94671 13.5 9.499 13.0523 9.499 12.5C9.499 11.9477 9.94671 11.5 10.499 11.5ZM11.999 4H6.999V6.78C7.366 7.111 7.646 7.526 7.815 8H13.999V6H12.968C12.437 6 11.999 5.5 11.999 5V4Z" fill="#1A1C1F"/>
</g>
<defs>
<clipPath id="clip0_185_713">
<rect width="20" height="20" fill="white"/>
</clipPath>
</defs>
</svg>
